X:1
T:Istud vinum
T:Bache, bene venies 
T:Carmina potoria (ca. 1220)
L:1/8
Q:1/2=80
M:4/4
K:F
V:1 treble nm="Piano" snm="Pno."
V:1
 F2 A2 c2 c2 | c2 B2 A4 | c2 c2 d2 B2 | c4 A4 | F2 G2 A2 G2 | B2 A2 A4 | A2 B2 G2 F2 | G4 F4 | %8
w: 1.~Ba che be- ne|ve- ni- es|gra- tus est op-|ta- tus|per quem nos- ter|a- ni- mus|fit le- ti- fi-|ca- tus|
w: 2.~Ba- chus for- te|su- pe- rans|pec- to- ra vi-|ro- rum|in a- mo- rem|con- ci- tat|a- ni- mos e-|o- rum|
w: 3.~Ba- chus se- pe|vi- si- tans|mu- li- e- rum|ge- nus|ca- cir e- as|sub- di- tas|ti- bi, o tu|Ve- nus|
w: 4.~Bac- chus ve- nas|pe- ne- trans|ca- li- do li-|quo- re|fa- cit e- as|ig- ne- as|Ve- ne- ris ar-|do- re|
w: 5.~A qua pro- rsus|co- i- tum|ne- quit im- pe-|tra- re|Bacc- chus il- lam|fa- ci- le|so- let ex- pug-|na- re.|
 F2 G2 A2 F2 | G2 A2 F2 F2 | E2 F2 D2 C2 | D4 B,4 | %12
w: Is- tud vi- num|bo- num vi- num|vi- num ge- ne-|ro- si|
w: ||||
w: ||||
w: ||||
w: ||||
"_6. Bacchus numen faciens hominem iocundum, reddit eum pariter doctum et facundum.\n\n7. Bacchus, deus inclite, omnes hic astantes leti sumus munera tua prelibantes.\n\n8. Omnes tibi canimus maxima preconia, te laudantes merito tempora per omnia." B,2 D2 F2 F2 | %13
w: red- dit vi- num|
w: |
w: |
w: |
w: |
 G2 A2 F2 F2 | F2 G2 _E2 G2 | F4 F4 |] %16
w: cu- ri- a- lem|pro- bum a- ni-|mo- sum|
w: |||
w: |||
w: |||
w: |||

